X:1
T:Willafjord
C:Shetland Reel, trad., abc file by Bernard Loffet
L:1/8
Q:380
M:4/4
K:G
z6zB|:[B2G,2][BG,]BG,G[BG,]B|[B2C,2][BC,]BC,G[BC,]B|[B2G,2][BG,]BG,G[BG,]B|[AD,]B[cD,]^c[=cD,]B[AD,]G|[B2G,2][BG,]BG,G[BG,]B|[B2C,2][BC,]BC,G[BC,]B|[^cD,]c[cD,]B[cD,]c[BG,]c| \
|1[B2G,2][B2G,2][B2G,2]G,B:|2[B2G,2][B2G,2][B2G,2]G,^c|:[B2G,2][BG,]BG,B[BG,]B|[BC,]^c[BC,]B[BC,]B[cG,]B|[B2G,2][BG,]BG,B[BG,]B|[^c2D,2][cD,]cD,c[cD,]c| \
[B2G,2][BG,]BG,B[BG,]B|[BC,]^c[BC,]B[BC,]B[cG,]c|[^cD,]c[cD,]B[cD,]c[BG,]c|1[B2G,2][B2G,2][B2G,2]G,^c:|2[B2G,2][B2G,2][B2G,2]G,2| \
Z:Created with TablEdit http://www.tabledit.com/, abc file by Bernard Loffet
